prototype/04-socket-without-vite/public/assets/img/dance_excitement.svg

<svg fill="none" viewBox="0 0 168 144" xmlns="http://www.w3.org/2000/svg">
<path d="m44.39 12.42c-2.727 2.4009-4.6231 5.3887-5.2718 8.6525-1.9133 9.6254 2.8302 13.702 8.7057 12.131 4.1321-1.1052 5.4259-7.8938 4.7098-10.804-0.9803-3.9833-3.6903-7.6957-8.1437-9.9795zm0 0c4.9934-4.3964 12.773-6.825 20.784-5.3774m-20.784 5.3774c-2.4345-1.2484-5.3899-2.0699-8.8686-2.2754m29.652-3.102c1.5759 0.28478 3.1606 0.71956 4.7349 1.3189 7.1408 2.7185 10.516 9.9625 9.1735 16.675-1.3693 6.8443-8.064 12.662-14.425 4.7617-5.3243-6.613-4.4969-16.502 0.5162-22.756zm0 0c1.0713-1.3363 2.3338-2.5066 3.7682-3.4435 5.2481-3.4276 13.93-4.686 20.59 4.0307 3.1285 4.0948 3.92 11.318 5.8168 17.393m0 0c1.1649 3.7308 2.7466 7.0286 5.5425 8.9029 6.418 4.3024 10.701-4.3234 5.513-8.3008-3.326-2.55-7.4332-2.4413-11.056-0.6021zm0 0c-5.8844 2.9878-10.49 10.542-8.3908 18.685 1.5675 6.0813 7.5774 9.9523 12.935 11.419m0 0c3.002 0.822 5.8 0.8892 7.497 0.1674 3.644-1.5505 2.973-6.1919 1.405-7.5211-2.99-2.5339-8.317 0.9179-8.9917 5.5118-0.0881 0.6001-0.0522 1.2186 0.0897 1.8419zm0 0c1.276 5.6006 11.112 11.591 16.424 8.1068 0.148-0.0972 0.294-0.1944 0.436-0.292m0 0c2.347-1.6058 3.932-3.3184 3.806-6.4423-0.253-6.2482-5.365-4.8253-6.393-0.5295-0.678 2.8319 0.593 5.2279 2.587 6.9718zm0 0c2.355 2.0587 5.719 3.2087 8.079 3.0942 4.927-0.2389-1.717-14.452 7.839-17.082 4.089-1.1254 8.985 0.6004 12.796 4.5016m0 0c3.058 3.1296 5.418 7.6591 6.104 13.24 1.059 8.6055-6.947 12.761-11.165 6.1489-4.886-7.658-2.182-17.18 5.061-19.389zm0 0c2.272-0.6928 4.991-0.6662 8.062 0.3632 8.281 2.7754 12.928 21.034 13.444 26.21 0.31 3.1102-2.084 13.906-10.548 10.683-7.146-2.7205-9.469 2.1073-14.469 2.6425-8.709 0.9322-15.333-12.429-27.648-9.7741-6.535 1.4087-10.752 11.706-4.064 19.525 0.257 0.302 0.564 0.614 0.914 0.925m0 0c2.416 2.148 6.89 4.252 11.553 2.503 5.815-2.18 1.314-11.597-5.097-8.5315-3.393 1.6227-5.317 3.7355-6.456 6.0285zm0 0c-1.208 2.431-1.534 5.064-1.796 7.528-0.711 6.7 2.759 16.208 4.912 22.071 1.065 2.899 2.49 14.915-8.423 6.326-15.327-12.062-22.457 0.093-26.349-20.284-0.4873-2.551-0.5138-7.038 0.8472-11.342m0 0c0.2861-0.904 0.6334-1.801 1.0507-2.67m-1.0507 2.67c5.0211 1.632 9.245 3.854 11.881 5.495 11.403 7.098 9.4127 14.117 12.598 22.666 2.206 5.921 4.111-16.006 2.605-18.343-3.985-6.183-18.948-9.997-26.033-12.488m-1.0507 2.67c-11.134-3.618-26.189-4.332-36.54 10.644m37.59-13.314c1.801-3.749 4.9044-6.9821 10.002-8.1155 8.0155-1.7821 10.353-19.44 7.5774-29.046-2.6795-9.2749-8.0749-12.858-13.538-13.005m-4.0416 50.167c-1.5879-0.558-2.7802-1.049-3.3646-1.486-3.604-2.695-1.8913-8.4835-4.8461-10.341-3.2593-2.0486-11.008 1.1979-13.406-1.7349-4.6959-5.7425-1.9069-14.202-4.1058-16.503-1.7619-1.8445-4.5149-1.8653-6.1618 1.1695-2.3608 4.3507-0.9907 15.127-1.8924 19.932-2.0809 11.089-20.09 31.812-40.258 12.943-11.904-11.137-5.5459-30.222 6.2159-33.18m71.861-20.967c-3.762-0.1013-7.5561 1.4267-10.518 3.8471-12.593 10.293-8.2463 21.761-0.7489 24.615 8.9568 3.4099 14.223-10.771 13.854-17.868-0.1246-2.4007-0.9003-6.3691-2.5879-10.594zm0 0c-3.9257-9.8279-12.786-21.044-29.865-17.141-8.2968 1.896-13.763 7.2874-17.276 13.045m0 0c-4.1217 6.756-5.5532 14.016-5.7106 16.726-0.6574 11.321 11.244 19.807 15.224-2.2602 1.2267-6.8018-2.6853-13.603-9.5138-14.466zm0 0c-3.9043-0.4934-8.7621 0.9547-14.158 5.4543-2.3836 1.9877-10.574 9.0699-10.562 19.608m0 0c4e-4 0.3438 0.0095 0.6912 0.0278 1.0423 0.6326 12.116-3.0059 22.766-1.0013 29.154 3.9675 12.642 24.823 9.45 24.558-8.6676-0.2301-15.694-9.5837-19.1-16.085-21.21-2.6444-0.8582-5.1772-0.9027-7.4993-0.3185z" opacity=".5" stroke="#ECAD0A" stroke-linecap="round"/>
</svg>

<svg width="168" height="144" viewBox="0 0 168 144" fill="none" xmlns="http://www.w3.org/2000/svg">
<path opacity="0.5" d="M44.3904 12.4205C41.6634 14.8214 39.7673 17.8092 39.1186 21.073C37.2053 30.6984 41.9488 34.7752 47.8243 33.2037C51.9564 32.0985 53.2502 25.3099 52.5341 22.4C51.5538 18.4167 48.8438 14.7043 44.3904 12.4205ZM44.3904 12.4205C49.3838 8.02414 57.1636 5.59548 65.1742 7.04309M44.3904 12.4205C41.9559 11.1721 39.0005 10.3506 35.5218 10.1451M65.1742 7.04309C66.7501 7.32787 68.3348 7.76265 69.9091 8.36196C77.0499 11.0805 80.4254 18.3245 79.0826 25.0369C77.7133 31.8812 71.0186 37.6986 64.658 29.7986C59.3337 23.1856 60.1611 13.2965 65.1742 7.04309ZM65.1742 7.04309C66.2455 5.70675 67.508 4.53645 68.9424 3.59963C74.1905 0.172066 82.8728 -1.08641 89.5327 7.63033C92.6612 11.7251 93.4527 18.9481 95.3495 25.0229M95.3495 25.0229C96.5144 28.7537 98.0961 32.0515 100.892 33.9258C107.31 38.2282 111.593 29.6024 106.405 25.625C103.079 23.075 98.9718 23.1837 95.3495 25.0229ZM95.3495 25.0229C89.4651 28.0107 84.8599 35.5654 86.9587 43.7081C88.5262 49.7894 94.5361 53.6604 99.894 55.1274M99.894 55.1274C102.896 55.9494 105.694 56.0166 107.391 55.2948C111.035 53.7443 110.364 49.1029 108.796 47.7737C105.806 45.2398 100.479 48.6916 99.8043 53.2855C99.7162 53.8856 99.7521 54.5041 99.894 55.1274ZM99.894 55.1274C101.17 60.728 111.006 66.7186 116.318 63.2342C116.466 63.137 116.612 63.0398 116.754 62.9422M116.754 62.9422C119.101 61.3364 120.686 59.6238 120.56 56.4999C120.307 50.2517 115.195 51.6746 114.167 55.9704C113.489 58.8023 114.76 61.1983 116.754 62.9422ZM116.754 62.9422C119.109 65.0009 122.473 66.1509 124.833 66.0364C129.76 65.7975 123.116 51.5843 132.672 48.9539C136.761 47.8285 141.657 49.5543 145.468 53.4555M145.468 53.4555C148.526 56.5851 150.886 61.1146 151.572 66.6952C152.631 75.3007 144.625 79.4564 140.407 72.8441C135.521 65.1861 138.225 55.6644 145.468 53.4555ZM145.468 53.4555C147.74 52.7627 150.459 52.7893 153.53 53.8187C161.811 56.5941 166.458 74.8524 166.974 80.0288C167.284 83.139 164.89 93.9346 156.426 90.7122C149.28 87.9917 146.957 92.8195 141.957 93.3547C133.248 94.2869 126.624 80.926 114.309 83.5806C107.774 84.9893 103.557 95.2871 110.245 103.106C110.502 103.408 110.809 103.72 111.159 104.031M111.159 104.031C113.575 106.179 118.049 108.283 122.712 106.534C128.527 104.354 124.026 94.9366 117.615 98.0025C114.222 99.6252 112.298 101.738 111.159 104.031ZM111.159 104.031C109.951 106.462 109.625 109.095 109.363 111.559C108.652 118.259 112.122 127.767 114.275 133.63C115.34 136.529 116.765 148.545 105.852 139.956C90.5254 127.894 83.3946 140.049 79.5031 119.672C79.0158 117.121 78.9893 112.634 80.3503 108.33M80.3503 108.33C80.6364 107.426 80.9837 106.529 81.401 105.66M80.3503 108.33C85.3714 109.962 89.5953 112.184 92.2313 113.825C103.634 120.923 101.644 127.942 104.829 136.491C107.035 142.412 108.94 120.485 107.434 118.148C103.449 111.965 88.4864 108.151 81.401 105.66M80.3503 108.33C69.2159 104.712 54.1616 103.998 43.8107 118.974M81.401 105.66C83.202 101.911 86.3054 98.6779 91.4032 97.5445C99.4187 95.7624 101.756 78.1045 98.9806 68.498C96.3011 59.2231 90.9057 55.6402 85.4426 55.493M81.401 105.66C79.8131 105.102 78.6208 104.611 78.0364 104.174C74.4324 101.479 76.1451 95.6905 73.1903 93.8332C69.931 91.7846 62.1822 95.0311 59.7839 92.0983C55.088 86.3558 57.877 77.8968 55.6781 75.595C53.9162 73.7505 51.1632 73.7297 49.5163 76.7645C47.1555 81.1152 48.5256 91.8916 47.6239 96.6968C45.543 107.786 27.5338 128.509 7.36574 109.64C-4.5382 98.5026 1.81986 79.4184 13.5816 76.4597M85.4426 55.493C81.6806 55.3917 77.8865 56.9197 74.925 59.3401C62.332 69.6327 66.6787 81.1011 74.1761 83.9554C83.1329 87.3653 88.3989 73.1848 88.0305 66.087C87.9059 63.6863 87.1302 59.7179 85.4426 55.493ZM85.4426 55.493C81.5169 45.6651 72.6564 34.4494 55.5772 38.3524C47.2804 40.2484 41.8139 45.6398 38.3013 51.3976M38.3013 51.3976C34.1796 58.1536 32.7481 65.4141 32.5907 68.1239C31.9333 79.445 43.8351 87.9307 47.8151 65.8637C49.0418 59.0619 45.1298 52.2604 38.3013 51.3976ZM38.3013 51.3976C34.397 50.9042 29.5392 52.3523 24.1434 56.8519C21.7598 58.8396 13.5698 65.9218 13.5816 76.4597M13.5816 76.4597C13.582 76.8035 13.5911 77.1509 13.6094 77.502C14.242 89.6177 10.6035 100.268 12.6081 106.656C16.5756 119.298 37.4314 116.106 37.1656 97.9884C36.9355 82.2949 27.5819 78.888 21.0809 76.7782C18.4365 75.92 15.9037 75.8755 13.5816 76.4597Z" stroke="#ECAD0A" stroke-linecap="round"/>
</svg>
